X:1
T:Brurleken åt Sulhusgubba (pols)
R:rorospols
Z:Småviltlaget, på Skuddhold, Track 4
M:3/4
L:1/8
K:D
|:  "D"f2 ((3def) (3d(ef) | "A"(gf) e3 (d |
    "A/E"c>B) (B<A) B>c | "D"d>(B A<G) F>D |
    "D"f2 ((3def) (3d(ef) | "A"(gf) e3 (d |
    "A"c>B) "A/B"(B<A) "A/C#"B>c | "D"d2 "D"d4 :||
|:  "D"a>(g f<d) df | "A"g>(f e<d) c>c |
    "E"(c>B) (B<A) B>c | "A"((3 cBc) a4 |
    "D"a>(g f<d) df | "A"g>(f e<d) c>c |
    "A"(c>B) "A/B"(B<A) "A/C#"B>c | "D"d2 "D"d4 :||
